src/components/bind/error.svg

<svg height="20" viewBox="0 0 20 20" width="20" xmlns="http://www.w3.org/2000/svg"><g fill="none" fill-rule="evenodd" transform=""><path d="m10 20c-5.52285714 0-10-4.4771429-10-10 0-5.52285714 4.47714286-10 10-10 5.5228571 0 10 4.47714286 10 10 0 5.5228571-4.4771429 10-10 10z" fill="#f46666"/><path d="m10 8.52316949-2.21864428-2.21864428c-.39854721-.39854721-1.06561652-.40441698-1.47343201.0033985-.4106587.4106587-.40933704 1.06749347-.0033985 1.47343201l2.21864428 2.21864428-2.21864428 2.2186443c-.39854721.3985472-.40441698 1.0656165.0033985 1.473432.4106587.4106587 1.06749347.409337 1.47343201.0033985l2.21864428-2.2186443 2.2186443 2.2186443c.3985472.3985472 1.0656165.404417 1.473432-.0033985.4106587-.4106587.409337-1.0674935.0033985-1.473432l-2.2186443-2.2186443 2.2186443-2.21864428c.3985472-.39854721.404417-1.06561652-.0033985-1.47343201-.4106587-.4106587-1.0674935-.40933704-1.473432-.0033985z" fill="#fff"/></g></svg>

<?xml version="1.0" encoding="UTF-8"?>
<svg width="20px" height="20px" viewBox="0 0 20 20" version="1.1" xmlns="http://www.w3.org/2000/svg" xmlns:xlink="http://www.w3.org/1999/xlink">
    <!-- Generator: Sketch 43.2 (39069) - http://www.bohemiancoding.com/sketch -->
    <title>icon/弹窗/错误</title>
    <desc>Created with Sketch.</desc>
    <defs></defs>
    <g id="4-听力做题和报告" stroke="none" stroke-width="1" fill="none" fill-rule="evenodd">
        <g id="4-5-1-听力话题-报告" transform="translate(-29.000000, -323.000000)">
            <g id="Group-2" transform="translate(14.000000, 298.000000)">
                <g id="1">
                    <g id="icon/弹窗/错误" transform="translate(15.000000, 25.000000)">
                        <g id="icon_保存">
                            <path d="M10,20 C4.47714286,20 0,15.5228571 0,10 C0,4.47714286 4.47714286,0 10,0 C15.5228571,0 20,4.47714286 20,10 C20,15.5228571 15.5228571,20 10,20 Z" id="icon_修改" fill="#F46666"></path>
                            <path d="M10,8.52316949 L7.78135572,6.30452521 C7.38280851,5.905978 6.7157392,5.90010823 6.30792371,6.30792371 C5.89726501,6.71858241 5.89858667,7.37541718 6.30452521,7.78135572 L8.52316949,10 L6.30452521,12.2186443 C5.905978,12.6171915 5.90010823,13.2842608 6.30792371,13.6920763 C6.71858241,14.102735 7.37541718,14.1014133 7.78135572,13.6954748 L10,11.4768305 L12.2186443,13.6954748 C12.6171915,14.094022 13.2842608,14.0998918 13.6920763,13.6920763 C14.102735,13.2814176 14.1014133,12.6245828 13.6954748,12.2186443 L11.4768305,10 L13.6954748,7.78135572 C14.094022,7.38280851 14.0998918,6.7157392 13.6920763,6.30792371 C13.2814176,5.89726501 12.6245828,5.89858667 12.2186443,6.30452521 L10,8.52316949 Z" id="icon_delete" fill="#FFFFFF"></path>
                        </g>
                    </g>
                </g>
            </g>
        </g>
    </g>
</svg>
